X:3
T:ESPIE MCNABB/The Midlothian Pipe Band #2
M:6/8
L:1/8
C:D. RICHARDSON
R:JIG
N:HN CHAMBERS - DANCE SETS IN ABC
K:D
fe | "D"d2A def | ABA "(A7)"A2A | "D"fgf fed | "A7"efe ABc |!
 "D"d2A "D7"def | "G"BGB B2g | "D"fga "A7"ABc | "D"d3- d :|!
ag | "D"fgf fed | "A7"efe efg | "D"aAa "D7"f2e | "G"dBB Bag |!
   | "D"fgf fed | "A7"efe efg | "D"fga "A7"ABc | "D"d3- d |]!
ag | "D"fgf fed | "A7"efe efg | "D"aAa "D7"f2e | "G"dBB Bag |!
 | "D"fga "A7"efg | "D"fed "G"B2g | "D"fga "A7"ABc | "D"d3- d |]
